X:1
T: Heilan' Brochan
C:
R:Reel
Q: 232
K:G
M:4/4
L:1/8
|:Bc|d2 ge dB GB|dB gB d2 Bc|d2 ge dB GB|A=F FA c2 Bc|
d2 ge dB GB|dB gB d2 Bc|d2 ge dB GB|A=F FA c2 Bc|
fG BG dG GB|dG GB d2 ge|dG BG dG GB|A=F FA c2 Bc|
fG BG dG GB|dG GB d2 ge|dG BG dG GB|A=F FA c2:|
